X:1
T:Beethoven's 5th Symphony
T:Beethoven's 5th Symphony
T:(Piano Arrangement)
T:Ludwig Von Beethoven
T:Arr. Evan Thomas
C:Ludwig Von Beethoven
Z:Arr. Evan Thomas
%%score { ( 1 3 4 ) | ( 2 5 ) }
L:1/8
Q:1/2=108
M:2/4
K:Eb
V:1 treble nm="Piano" snm="Pno."
V:3 treble 
V:4 treble 
V:2 bass 
V:5 bass 
V:1
"^Allegro con brio"!ff! z [G,G] [G,G][G,G] | !fermata![E,E]4 | z [F,F] [F,F][F,F] | [D,D]4- | %4
 !fermata![D,D]4 |!p! z G GG | E4- | [EG]4- | [EGc]4- | [EGc]G GG | D4- | [DG]4- | [DGd]4- | %13
 [DGd]g gf | e4- | eg gf | e4- |"_cresc." [Ge][Gdg] [Gdg][F=Bf] |!f! !>![EGce]2 z2 | %19
 !>![C^FAc]2 z2 | !>!!fermata![G=Bdg]4 |!ff! z [A,A] [A,A][A,A] | [F,F]4- | !fermata![F,F]4 | %24
!p! z A AA | F4- | [=B,F]4- | [G,B,F]4 |!p! z A AA | F4- | [=B,F]4- | [G,B,F]4 | EG [Gc][Ec] | %33
"_cresc." [CDFAc]4 | =B[FAB] [FAB][DFd] | [DEGd]4 | c[Gc] [Gc][Ee] | [Ae][Ad] .[Ad].[Ff] | %38
 [Bf][B=e] .[Be].[Gg] | [cg][cf] .[cf].[Aa] | [=ea][eg] .[eg].[Bb] | [fb][fa] .[fa].[cc'] | %42
 [ac'][a=b] .[ab].[fd'] |!f! [gc'][ge'] [ge'][ge'] | [ec']g gg | ec GG | EC CC | %47
 =B,[ff'] [fd'][fd'] | [d=b]g ff | d=B GF | D=B, CC |!ff! C[_ge'] [ge'][ge'] | [ec']=a aa | %53
 [e_g]e ee | [CEc][=A,=A] [A,A][A,A] | [=A,E_G=A]2 z2 | z4 | [B,DFB]2 z2 | z!ff! [Bb] [Bb][Bb] | %59
 [Ee]4 | [Ff]4 | [B,B]4 |!p!"_dolce" (B2 e2 | d2 e2 | f2 c2) | (c2 B2) | (B2 e2 | d2 e2 | f2 c2) | %69
 (c2 B2) | (b2 e'2 | d'2 e'2 | f'2 c'2) | (c'2 b2) | (B2 c2 | _d2 c2 | B2 c2) | B2 A2 | (_d2 e2 | %79
 f2 e2 | _d2 e2) | (_d2 c2) | e2 f2 |"_cresc." _g2 f2 | e2 f2 | _g2 f2 | e2 f2 | _g2 f2 | e2 f2 | %89
 [_G=A_g]2 [FAf]2 | [E=Ae]2 [FAf]2 | [_G=A_g]2 [FAf]2 | [_G=A_g]2 [A=a]2 |!ff! [Bdfb]4- | %94
 [Bdfb]c' ba | [Bea]g fe | [Ae]d cd | [GBf]e BG | [FAd]c AF | [Gc]B GE | B,=a ba | b=a ba | %102
 bc' ba | [cea]g fe | ed [DFc]d | fe [EB]G | dc [CA]F | cB [B,G]E | B,G [Bb][Bb] | [EGe]g gg | %110
 eb bb | g[Ee] [Ee][Ee] | [EGBe][Ff] [Ff][Ff] | [GBeg]g gg | eb bb | g[Ee] [Ee][Ee] | %116
 [GBeg][Bb] [Bb][Bb] | [Bb]2 z2 | z [Bb] [Bb][Bb] | [Bb]2 z2 | z [dfd'] [dfd'][dfd'] | %121
 [egbe']2 z2 | z4 | z4 :| z!ff! [B,B] [B,B][B,B] | [G,G]4- | [G,G]4- | !fermata![G,G]4 | %128
!p! z c cc | A4- | [Ac]4- | [Acf]4- | [Acf]c cc | G4 | c4- | [cg]4- | [cg]c' c'b | a4- | ac' c'b | %139
 a4- | ac' c'b |"_cresc." aa ag | ff fe | dd dc | =B2 z2 | z [Ee] [Ee][Ff] | [Gg]4- | [Gg]4 | %148
"_dim." [=A=a]2 [Bb]2 | [cc']2 [^c^c']2 |!p! [dd'][^fd'] [fd'][=ac'] | [db]4 | %152
 [^f=a][fd'] [fd'][ac'] | [gb][Bg] [Bg][c=a] | [d^f]d dc | d[Gg] [Gg][=A=a] | [Bb]2 z2 | %157
 z [^F^f] [=A=a][Bb] | [cc']2 z2 | z [^F^f] [=A=a][Bb] | [cc']2 z2 | z [Gg] [Bb][cc'] | [dd']2 z2 | %163
 z"_cresc." [Gg] [Bb][cc'] | [dd'][Bb] [cc'][dd'] |!f! !/![e^f=ae']4 | !/![e^f=ae']4 | %167
 [e^f=ae']2 z2 | z [=eg^c'=e'] [egc'e'][egc'e'] | !/![=eg^c'=e']4 | !/![=eg^c'=e']4 | %171
 [=eg^c'=e']2 z2 | z"_piu""_cresc." [dgbd'] [dgbd'][dgbd'] | [dgbd']2 z2 | z2 [^c^c'][cc'] | %175
 [^c^c']2 [dd'][dd'] |!ff! [dd'][dd'] [dd'][dd'] | [Gg]4 | [=A=a]4 | [Dd]4- | [Dd]4- | [Dd]4- | %182
 [Dd]2 [^F^f][Ff] | [=A=a]2 [dd'][dd'] | [=B=b][Gg] [Gg][Gg] | [Cc]4 | [Dd]4 | [G,G]4- | [G,G]4- | %189
 [G,G]4- | [G,G]2 [=B,=B][B,B] | [Dd]2 [Gg][Gg] | [=Ec=e][cc'] [cc'][cc'] | [FAcf]4 | [GB_dg]4 | %195
 [G,B,C=E]4 | [A,CF]4 | [FAcf]4 | [GB_dg]4 | [G,B,C=E]4 | [A,CF]4 | [FAcf]4 | [_GB_d_g]4 | %203
 [B,_D_G]4 | [=A,CE=A]4 | [=Ace=a]4 | [B_dfb]4 |"_dim." [_DFB]4 | [_ce_g_c']4 | [E_G_c]4 | %210
 [_dfa_d']4 | [A,_D]4 | [_d^f=a_d']4 |!p! [=A,^C^F]4 | [_d^f=a_d']4 | [=A,^C^F]4 | [_d^f=a_d']4 | %217
 [=A,^C^F]4 |!pp! [d^f=ad']4 | [D^F=A]4 | [d^f=ad']4 | [=A,D^F]4 | [d^f=ad']4 | [=A,D^F]4 | %224
 [d^f=ad']4 |!ff! z [dd'] [dd'][dd'] | [=Bdg=b]4 | [cdgc']4 | [=Ad^f=a]4- | [Adfa]4 | %230
!pp! [dfad']4 | [FA]4 | [dfad']4 | [FA]4 | [dfad']4 | [FA]4 | [dfad']4 |!ff! z4 | z [Aa] [Aa][Aa] | %239
 [Ff]4- | [Ff][Aa] [Aa][Aa] | [Ff]4- | [Ff][Aa] [Aa][Aa] | [Ff][Aa] [Aa][Aa] | [Ff][Aa] [Aa][Aa] | %245
 [Ff][Gg] [Gg][Gg] | !fermata![Gceg]4 | z [Gfg] [Gfg][Gfg] | [G=Bdg]4- | !fermata![GBdg]4 | %250
!p! z G GG | E4- | [EG]4- | [EGc]4- | [EGc]G GG | D4- | [DG]4- | [DGd]4- | [DGd]g gf | e4- | %260
 eg gf | e4- |"_cresc." [Ge][Gdg] [Gdg][F=Bf] | !>![EGce]2 z2 | !>![C^FAc]2 z2 | %265
!ff![Q:1/4=71]"^Adagio""_cadenza"!>(! !fermata!g4 f2 e2 d4!>)!{edcd} f2 e2 !fermata!d2 | %266
!p![Q:1/2=108]"^Allegro con brio" z A AA | F4- | [=B,F]4- | [G,B,F]4 |!p! z A AA | F4- | [=B,F]4- | %273
 [G,B,F]4 | EG [Gc][Ec] |"_cresc." [CDFAc]4 | =B[FAB] [FAB][DFd] | [DEGd]4 | c[Gc] [Gc][Ee] | %279
 [Ae][Ad] .[Ad].[Ff] | [Bf][B=e] .[Be].[Gg] | [cg][cf] .[cf].[Aa] | [=ea][eg] .[eg].[Bb] | %283
 [fb][fa] .[fa].[cc'] | [ac'][a=b] .[ab].[fd'] |!f! [gc'][ge'] [ge'][ge'] | [ec']g gg | ec GG | %288
 EC CC | =B,[ff'] [fd'][fd'] | [d=b]g ff | d=B GF | D=B, CC |!ff! C[_ge'] [ge'][ge'] | [ec']=a aa | %295
 ^fe ee | [CEc][=A,=A] [A,A][A,A] | [=A,CD^F]2 z2 | z4 | [G,=B,DG]2 z2 | z4 | z4 | z4 | z4 | %304
!p!"_dolce" G2 c2 | =B2 c2 | d2 =A2 | =A2 G2 | g2 c'2 | =b2 c'2 | d'2 =a2 | =a2 g2 | G2 c2 | %313
 =B2 c2 | d2 =A2 | =A2 G2 | g2 c'2 | =b2 c'2 | d'2 =a2 | =a2 g2 | B2 c2 | _d2 c2 | b2 c'2 | %323
 b2 =a2 | c2 d2 | e2 d2 | c'2 d'2 | c'2 =b2 | [Ff]2 [Gg]2 |"_cresc." [Aa]2 [Gg]2 | [Ff]2 [Gg]2 | %331
 [Aa]2 [Gg]2 | [Ff]2 [Gg]2 | [Aa]2 [Gg]2 | [Ff]2 [Gg]2 | [Aa]2 [Gg]2 | [^F^f]2 [Gg]2 | %337
 [=A=a]2 [Gg]2 | [^F^f]2 [Gg]2 | [=A=a]2 [Gg]2 | [^F^f]2 .[Gg]2 | [^F^f]2 .[Gg]2 | [^F^f]2 .[Gg]2 | %343
!ff! !^![G=Bdg]4- | [GBdg]=a gf | f=e dc | c=B =AB | dc G=E | =B=A FD | =AG =EC | G,^F GF | %351
 G^F GF | G=a gf | f=e dc | c=B =AB | dc G=E | =B=A FD | =AG =EC | G,G g[Gg] | [c=egc']=e' e'e' | %360
 c'g gg | =ec cc | G[dd'] [dd'][dd'] | [=egc'=e']e' e'e' | c'g gg | =ec cc | G[Gdg] [Gdg][Gdg] | %367
 [Gc=eg]2 z2 | z [Gdg] [Gdg][Gdg] | [Gc=eg]2 z2 | z [=Bd=b] [Bdb][Bdb] | [c=egc']4 | !/![cc']4 | %373
 [cfac']4 | !/![cc']4 | [c=egc']4 | !/![cgc']4 | [cfac']4 | !/![cgc']4 | !/![_dfa_d']4 | %380
 !/![_dfa_d']4 | !/![_dfa_d']4 | !/![_dfa_d']4 | [_dfa_d']2 z2 | z!p! F FF | A2 z2 | z4 | %387
!ff! z [ee'] [ee'][ee'] | !/![e^f=ae']4 | !/![e^f=ae']4 | !/![e^f=ae']4 | !/![e^f=ae']4 | %392
 [e^f=ae']2 z2 | z [Cc] [Cc][Cc] | [Ece]2 z2 | z4 | z4 | =Bc de | fg ag | ag ag | z4 | =Bc de | %402
 fg ag | ag ag | ag ba | gf ag | fe gf | ed fe | dc ed | cB dc | BA cB | AG BA | FG EG | DG EG | %414
 FG EG | FG Gc | Ac Gc | Ac =Bf | cf =Bf | cf dg | [EGce]2 [Cc]2 | [Dd]2 [Ee]2 | [FAcf]2 [Dd]2 | %423
 [Ee]2 [Ff]2 | [Gcg]2 [Ee]2 | [Ff]2 [Gg]2 | [Acfa]2 [Ff]2 | [Gg]2 [=A=a]2 | [=Bdg=b]2 [Gg]2 | %429
 [=A=a]2 [=B=b]2 | [cegc']2 [Gg]2 | [Acea]2 [Ee]2 | [FAcf]2 [Dd]2 | [EAce]2 [Ff]2 | %434
 [G=Bdg]2 [^F^f]2 | [G=Bdg]2 [G,G]2 | [CEGc]2 z2 | [DGd]2 [Ee]2 | [Fcf]2 [Dd]2 | [EGce]2 [Ff]2 | %440
 [Gceg]2 [Ee]2 | [F,A,CF]2 [G,G]2 | [A,CFA]2 [F,F]2 | [=B,DG=B]2 [Cc]2 | [DF=Bd]2 [=B,B]2 | %445
 [CF=Ac]2 [Dd]2 | [EGce]2 [Cc]2 | [=B,DF=B]2 [Cc]2 | [DFd]2 [=B,=B]2 | [c=ac']2 [dd']2 | %450
 [egc'e']2 [dd']2 | [ceac']2 [Bb]2 | [Acfa]2 [Gg]2 | [CFA]2 [CG]2 | [Acfa]2 [Gg]2 | %455
 [af'a']2 [ge'g']2 | [Gceg]2 [gd'g']2 | [G=Bdg]2 [gd'g']2 | [CGc][Gg] [Gg][Gg] | %459
 [G=Bdg][GBdg] [GBdg][GBdg] | [G=Bdg]4 |!p!!<(! [=Bd]2 [ce]2 | [df]2 [=Bd]2 | [ce]2 [df]2!<)! | %464
!ff! d[Gg] [Gg][Gg] | !/![Gg]4 | !/![Gg]4 | !/![Gg]4 | !fermata![EGce]4 | z [Ff] [Ff][Ff] | %470
 [Dd]4- | !fermata![Dd]4 |!pp! z G GG | z A AA | Ge ee | c4- | cG GG | z A AA | Ge ee | c4- | %480
 c!ff![=Bdg=b] [Bdgb][Bdgb] | [cegc']2 z2 | z [=Bdg=b] [Bdgb][Bdgb] | [cegc']2 z2 | %484
 z [=Bdg=b] [Bdgb][Bdgb] | .[cegc']2 .[=Bdg=b]2 | .[cegc']2 .[=Bdg=b]2 | .[cegc']2 .[=Bdg=b]2 | %488
 .[cegc']2 .[=Bdg=b]2 | .[cegc']2 z2 | .[=Bdfg=b]2 z2 | !^![cegc']2 z2 |] %492
V:2
 z [G,,,G,,] [G,,,G,,][G,,,G,,] | !fermata![E,,,E,,]4 | z [F,,,F,,] [F,,,F,,][F,,,F,,] | %3
 [D,,,D,,]4- | !fermata![D,,,D,,]4 | z4 | [C,,C,]4- | [C,,C,]4- | [C,,C,]4 | [C,,C,]4 | %10
 [=B,,,=B,,]4- | [B,,,B,,]4- | [B,,,B,,]4- | [B,,,B,,]4 | [C,,C,]4 | [=B,,,=B,,]4 | [C,,C,]4 | %17
 [=B,,,=B,,]4 | !>![C,,C,]4 | !>![A,,,A,,]4 | !>!!fermata![G,,,G,,]4 | %21
 z [A,,,A,,] [A,,,A,,][A,,,A,,] | [F,,,F,,]4- | !fermata![F,,,F,,]4 | z4 | [G,,,G,,]4- | %26
 [G,,,G,,]4- | [G,,,G,,]G,, G,,G,, | [C,,C,]4 | [G,,,G,,]4- | [G,,,G,,]4- | [G,,,G,,]G,, G,,G,, | %32
 [C,,C,]4- | [C,,C,][C,,C,] [C,,C,][C,,C,] | [C,,C,]4- | [C,,C,][C,,C,] [C,,C,][C,,C,] | [C,,C,]4 | %37
 [C,=B,]2 z2 | [C,B,]2 z2 | [C,A,]2 z2 | [C,=E,]2 z2 | [C,F,]2 z2 | [C,,C,]2 z2 | [C,,,C,,]4- | %44
 [C,,,C,,]4- | [C,,,C,,]4- | [C,,,C,,][C,,C,] [C,,C,][C,,C,] | [G,,,G,,]4- | [G,,,G,,]4- | %49
 [G,,,G,,]4- | [G,,,G,,][G,,,G,,] [G,,,G,,][G,,,G,,] | [C,,C,]2 [C,,C,]2 | [C,,C,]2 [C,,C,]2 | %53
 [C,,_G,,C,]2 [C,,G,,C,]2 | [C,,_G,,C,][C,,G,,C,] [C,,G,,C,][C,,G,,C,] | [C,,_G,,C,]2 z2 | z4 | %57
 [D,,D,]2 z2 | z4 | z4 | z4 | z4 | z4 | z4 | z4 | z4 | [G,B,]4 | [F,A,]4 | [B,,F,]4 | [E,G,]4 | %70
 [G,B,]4 | [F,A,]4 | [B,,F,]4 | [E,G,]4 | [B,,G,B,]4 | [G,,=E,G,]4 | [=E,,C,=E,]4 | [A,,F,A,]4 | %78
 [_D,A,_D]4 | [B,,G,B,]4 | [G,,E,G,]4 | [C,A,C]4 | [A,,A,]4 | =A,4 | [=A,,=A,]4 | B,4 | [B,,B,]4 | %87
 _C4 | [_C,_C]4 | C4 | [C,C]4 | [C,,C,]2 [C,,C,]2 | [C,,C,]2 [C,,C,]2 | [D,,D,]4- | %94
 [D,,D,]2 [D,,D,]2 | [E,,E,]2 z2 | [F,,F,]2 z2 | [G,,G,]2 z2 | [A,,A,]2 z2 | [B,,B,]2 z2 | %100
 [B,,B,]2 z2 | [D,,D,]2 [F,,F,]2 | [D,,D,]2 [F,,F,]2 | [E,,E,]2 [G,,G,]2 | [F,,F,]2 [A,,A,]2 | %105
 [G,,G,]2 [B,,B,]2 | [A,,A,]2 [C,C]2 | B,2 B,,2 | B,,2 B,,,2 | [E,,,E,,]4- | [E,,,E,,]4- | %111
 [E,,,E,,]4- | [E,,,E,,]B,,, B,,,B,,, | [E,,,E,,]4- | [E,,,E,,]4- | [E,,,E,,]4- | %116
 [E,,,E,,]B,,, B,,,B,,, | [E,,,E,,]2 z2 | z B,,, B,,,B,,, | [E,,,E,,]2 z2 | z B,,, B,,,B,,, | %121
 [E,,,E,,]2 z2 | z4 | z4 :| z4 | z [_D,,_D,] [D,,D,][D,,D,] | [C,,C,]4- | !fermata![C,,C,]4 | z4 | %129
 [C,,,C,,]4- | [C,,,C,,]4- | [C,,,C,,][_D,,,_D,,] [D,,,D,,][D,,,D,,] | [C,,,C,,]4- | [C,,,C,,]4- | %134
 [C,,,C,,]4- | [C,,,C,,][_D,,,_D,,] [D,,,D,,][D,,,D,,] | [C,,,C,,]4- | [C,,,C,,]4- | [C,,,C,,]4- | %139
 [C,,,C,,]4- | [C,,,C,,]4 | [C,,C,]4 | [D,,D,]2 [E,,E,]2 | [F,,F,]2 [^F,,^F,]2 | %144
 [G,,G,][G,,G,] [G,,G,][F,,F,] | [E,,E,]4 | D,G, G,F, | E,E, E,D, | C,C, C,B,, | =A,,A,, A,,G,, | %150
 ^F,,2 z2 |[K:treble] G,[B,G] [B,G][C=A] | [D^F]4 |[K:bass] [G,,G,]2 z2 | [D,,D,]2 z2 | %155
 [G,,,G,,]4 | !/![G,,,G,,]4 | [=A,,,=A,,]4 | !/![=A,,,=A,,]4 | [=A,,,=A,,]4 | !/![=A,,,=A,,]4 | %161
 [B,,,B,,]4 | !/![B,,,B,,]4 | [B,,,B,,]4 | !/![B,,,B,,]4 | !/![C,,,C,,]4 | !/![C,,,C,,]4 | %167
 [C,,,C,,]2 z2 | z [^C,,,^C,,] [C,,,C,,][C,,,C,,] | !/![^C,,,^C,,]4 | !/![^C,,,^C,,]4 | %171
 [^C,,,^C,,]2 z2 | z [D,,,D,,] [D,,,D,,][D,,,D,,] | [D,,,D,,]2 z2 | z2 [=E,,,=E,,][E,,,E,,] | %175
 [=E,,,=E,,]2 [^F,,,^F,,][F,,,F,,] | [^F,,,^F,,] z z2 | z4 | z4 | z2 [C,C]2- | [C,C]2 .[=A,,=A,]2 | %181
 .[^F,,^F,]2 .[D,,D,]2 | .[C,,C,]2 .[=A,,,=A,,]2 | .[^F,,,^F,,]2 [D,,,D,,]2 | z4 | z4 | z4 | %187
 z2 [F,F]2- | [F,F]2 .[D,D]2 | .[=B,,=B,]2 .[G,,G,]2 | .[F,,F,]2 .[D,,D,]2 | %191
 .[=B,,,=B,,]2 .[G,,,G,,]2 | [C,,C,] z z2 | [A,C]4 | [B,C_D]4 | [G,,,G,,]4 | [A,,,A,,]4 | [A,C]4 | %198
 [B,C_D]4 | [G,,,G,,]4 | [A,,,A,,]4 | [A,C]4 | [B,_D]4 | [B,,,B,,]4 | [C,,C,]4 | [CE]4 | [_DF]4 | %207
 [_D,,_D,]4 | [E_G]4 | [E,,E,]4 | z4 | [F,,F,]4 | z4 | [^F,,^F,]4 | z4 | [^F,,^F,]4 | z4 | %217
 [^F,,^F,]4 | z4 | [^F,,^F,]4 | z4 | [^F,,^F,]4 | z4 | [^F,,^F,]4 | z4 | %225
 !>![^F,,,^F,,][D,,D,] [D,,D,][D,,D,] | [=B,,,=B,,]4 | [C,,C,]4 | [=A,,,=A,,]4- | [A,,,A,,]4 | z4 | %231
 [F,A,]4 | z4 | [F,A,]4 | z4 | [F,A,]4 | z4 | [=B,,,=B,,][A,,A,] [A,,A,][A,,A,] | [F,,F,]4- | %239
 [F,,F,][A,,,A,,] [A,,,A,,][A,,,A,,] | [F,,,F,,]4- | [F,,,F,,][A,,,A,,] [A,,,A,,][A,,,A,,] | %242
 [F,,,F,,][A,,,A,,] [A,,,A,,][A,,,A,,] | [F,,,F,,][A,,,A,,] [A,,,A,,][A,,,A,,] | %244
 [F,,,F,,][A,,,A,,] [A,,,A,,][A,,,A,,] | [F,,,F,,][G,,,G,,] [G,,,G,,][G,,,G,,] | !//-!G,,,2 G,,2 | %247
 z [G,,,G,,] [G,,,G,,][G,,,G,,] | !//-!G,,,2 G,,2 | !//-!G,,,2 G,,2 | z4 | [C,,C,]4- | [C,,C,]4- | %253
 [C,,C,]4 | [C,,C,]4 | [=B,,,=B,,]4- | [B,,,B,,]4- | [B,,,B,,]4- | [B,,,B,,]4 | [C,,C,]4 | %260
 [=B,,,=B,,]4 | [C,,C,]4 | [=B,,,=B,,]4 | !>![C,,C,]4 | !>![A,,,A,,]4 | !>![G,,,G,,]2 z16 | z4 | %267
 [G,,,G,,]4- | [G,,,G,,]4- | [G,,,G,,]G,, G,,G,, | [C,,C,]4 | [G,,,G,,]4- | [G,,,G,,]4- | %273
 [G,,,G,,]G,, G,,G,, | [C,,C,]4- | [C,,C,][C,,C,] [C,,C,][C,,C,] | [C,,C,]4- | %277
 [C,,C,][C,,C,] [C,,C,][C,,C,] | [C,,C,]4 | [C,=B,]2 z2 | [C,B,]2 z2 | [C,A,]2 z2 | [C,=E,]2 z2 | %283
 [C,F,]2 z2 | [C,,C,]2 z2 | [C,,,C,,]4- | [C,,,C,,]4- | [C,,,C,,]4- | %288
 [C,,,C,,][C,,C,] [C,,C,][C,,C,] | [G,,,G,,]4- | [G,,,G,,]4- | [G,,,G,,]4- | %292
 [G,,,G,,][G,,,G,,] [G,,,G,,][G,,,G,,] | [C,,C,]2 [C,,C,]2 | [C,,C,]2 [C,,C,]2 | %295
 [C,,_G,,C,]2 [C,,G,,C,]2 | [C,,_G,,C,][C,,G,,C,] [C,,G,,C,][C,,G,,C,] | [C,,C,]2 z2 | z4 | %299
 [=B,,,=B,,]2 z2 | z G, G,G, | C,4 | D,4 | G,,4 | z4 | z4 | z4 | z4 | [=EG]4 | [DF]4 | [G,D]4 | %311
 [C=E]4 | [=E,G,]4 | [D,F,]4 | [G,,D,]4 | [C,=E,]4 | [=EG]4 | [DF]4 | [G,D]4 | [C=E]4 | %320
 [B,,G,B,]4 | [G,,=E,G,]4 | [=E,,C,=E,]4 | [F,,F,]4 | [C,=A,C]4 | [=A,,^F,=A,]4 | [^F,,D,^F,]4 | %327
 [G,,G,]4 | z4 | z [A,,,A,,] [A,,,A,,][A,,,A,,] | [A,,,A,,]2 z2 | %331
 z [=B,,,=B,,] [B,,,B,,][B,,,B,,] | [=B,,,=B,,]2 z2 | z [D,,D,] [D,,D,][D,,D,] | [D,,D,]2 z2 | %335
 z [D,,D,] [D,,D,][D,,D,] | [D,,D,]2 z2 | z [D,,D,] [D,,D,][D,,D,] | [D,,D,]2 z2 | z2 .[D,,,D,,]2 | %340
 z2 .[D,,,D,,]2 | z2 .[D,,,D,,]2 | z2 .[D,,,D,,]2 | !^![D,,,D,,]4- | [D,,,D,,]2 [=B,,,,=B,,,]2 | %345
 [C,,,C,,]2 z2 | [D,,,D,,]2 z2 | [=E,,,=E,,]2 z2 | [F,,,F,,]2 z2 | [G,,,G,,]2 z2 | [G,,,G,,]2 z2 | %351
 [=B,,,,=B,,,]2 [D,,,D,,]2 | [=B,,,,=B,,,]2 [D,,,D,,]2 | [C,,,C,,]2 [=E,,,=E,,]2 | %354
 [D,,,D,,]2 [F,,,F,,]2 | [=E,,,=E,,]2 [G,,,G,,]2 | [F,,,F,,]2 [=A,,,=A,,]2 | G,,2 G,,,2 | %358
 G,,2 G,,,2 | [C,,,C,,]4- | [C,,,C,,]4- | [C,,,C,,]4- | [C,,,C,,]G,,, G,,,G,,, | [C,,,C,,]4- | %364
 [C,,,C,,]4- | [C,,,C,,]4- | [C,,,C,,]G,,, G,,,G,,, | [C,,,C,,]2 z2 | z G,,, G,,,G,,, | %369
 [C,,,C,,]2 z2 | z G,,, G,,,G,,, | [C,,,C,,]4 | !/![C,,C,]4 | [A,,,A,,]4 | !/![A,,,A,,]4 | %375
 [=E,,,=E,,]4 | !/![=E,,,=E,,]4 | [F,,,F,,]4 | !/![F,,,F,,]4 | !/![F,,,F,,]4 | !/![F,,,F,,]4 | %381
 !/![F,,,F,,]4 | !/![F,,,F,,]4 | [F,,,F,,]2 z2 | z F, F,F, | A,2 z2 | z4 | %387
 z [^F,,,^F,,] [F,,,F,,][F,,,F,,] | !/![^F,,,^F,,]4 | !/![^F,,,^F,,]4 | !/![^F,,,^F,,]4 | %391
 !/![^F,,,^F,,]4 | [^F,,,^F,,]2 z2 | z [C,,C,] [C,,C,][C,,C,] | [C,,C,]2 z2 | %395
 z [G,,G,] [G,,G,][G,,G,] | [E,,E,]4 | [F,,F,]4 | [D,,D,]4- | [D,,D,][G,,G,] [G,,G,][G,,G,] | %400
 [E,,E,]4 | [F,,F,]4 | [D,,D,]4- | [D,,D,][G,,G,] [G,,G,][G,,G,] | [E,,E,]2 [F,,F,]2 | %405
 [D,,D,]2 [E,,E,]2 | [C,,C,]2 [D,,D,]2 | [B,,,B,,]2 [C,,C,]2 | [A,,,A,,]2 [B,,,B,,]2 | %409
 [G,,,G,,]2 [A,,,A,,]2 | [F,,,F,,]2 [G,,,G,,]2 | [E,,,E,,]2 [F,,,F,,]2 | [D,,,D,,]2 [C,,,C,,]2 | %413
 [=B,,,,=B,,,]2 [C,,,C,,]2 | [D,,,D,,]2 [C,,,C,,]2 | [D,,,D,,]2 [=E,,,=E,,]2 | %416
 [F,,,F,,]2 [=E,,,=E,,]2 | [F,,,F,,]2 [G,,,G,,]2 | [A,,,A,,]2 [G,,,G,,]2 | %419
 [=A,,,=A,,]2 [=B,,,=B,,]2 | !//-!C,,2 C,2 | [C,,C,]2 z2 | !//-!C,,,2 C,,2 | [C,,,C,,]2 z2 | %424
 !//-!C,,,2 C,,2 | [C,,,C,,]2 z2 | !//-!C,,,2 C,,2 | [C,,,C,,]2 z2 | !//-!G,,,2 G,,2 | %429
 [G,,,G,,]2 z2 | [C,,,C,,]2 z2 | [C,,,C,,]2 z2 | [C,,,C,,]2 z2 | [C,,,C,,]2 z2 | [G,,,G,,]2 z2 | %435
 [G,,,G,,]2 z2 | [C,,,C,,]2 z2 | [C,,,C,,]2 [C,,,C,,]2 | [C,,,C,,]2 z2 | [C,,,C,,]2 [C,,,C,,]2 | %440
 [C,,,C,,]2 z2 | [C,,,C,,]2 [C,,,C,,]2 | [C,,,C,,]2 z2 | [G,,,G,,]2 [G,,,G,,]2 | [G,,,G,,]2 z2 | %445
 [G,,,G,,]2 [G,,,G,,]2 | [G,,,C,,G,,]2 z2 | [G,,,G,,]2 [G,,,G,,]2 | [G,,,G,,]2 z2 | %449
 [C,=A,C]2 [D,=B,D]2 | [E,CE]2 [D,G,D]2 | [C,A,C]2 [B,,E,B,]2 | [A,,F,A,]2 [G,,C,G,]2 | %453
 [F,,,F,,]2 [C,,,C,,]2 | z4 | [F,,,F,,]2 [C,,,C,,]2 | [G,,,G,,]2 z2 | [G,,,G,,]2 z2 | [C,,,C,,]4- | %459
 [C,,,C,,]4 | [G,,,G,,]4 | [DF]2 [CE]2 | [=B,D]2 [DF]2 | [CE]2 [=B,D]2 | [G,,,G,,]4 | %465
 !/![G,,,G,,]4 | !/![G,,,G,,]4 | !/![G,,,G,,]4 | !//-!E,,,2 E,,2 | z [F,,,F,,] [F,,,F,,][F,,,F,,] | %470
 !//-!D,,,2 D,,2 | !//-!D,,,2 D,,2 | z4 | [C,,,G,,,C,,]4- | [C,,,G,,,C,,]4- | [C,,,G,,,C,,]4- | %476
 [C,,,G,,,C,,]4 | [C,,,G,,,C,,]4- | [C,,,G,,,C,,]4- | [C,,,G,,,C,,]4- | %480
 [C,,,G,,,C,,]G,,, G,,,G,,, | [C,,,C,,]2 z2 | z G,,, G,,,G,,, | [C,,,C,,]2 z2 | z G,,, G,,,G,,, | %485
 [C,,,C,,]2 G,,,2 | [C,,,C,,]2 G,,,2 | [C,,,C,,]2 G,,,2 | [C,,,C,,]2 G,,,2 | .[C,,,C,,]2 z2 | %490
 .G,,,2 z2 | !^![C,,,C,,]2 z2 |] %492
V:3
 x4 | x4 | x4 | x4 | x4 | x4 | x A AA | x e ee | x4 | x4 | x A AA | x f ff | x4 | x4 | x4 | x4 | %16
 x4 | x4 | x4 | x4 | x4 | x4 | x4 | x4 | x4 | x4 | x4 | x4 | x4 | x4 | x4 | x4 | x4 | x4 | x4 | %35
 x4 | x4 | x4 | x4 | x4 | x4 | x4 | x4 | x4 | x4 | x4 | x4 | x4 | x4 | x4 | x4 | x4 | x4 | x4 | %54
 x4 | x4 | x4 | x4 | x4 | x4 | x4 | x4 | x4 | x4 | x4 | x4 | x4 | x4 | x4 | x4 | x4 | x4 | x4 | %73
 x4 | x4 | x4 | x4 | x4 | x4 | x4 | x4 | x4 | x4 | x4 | x4 | x4 | x4 | x4 | x4 | x4 | x4 | x4 | %92
 x4 | x4 | x4 | x4 | x4 | x4 | x4 | x4 | x4 | x4 | x4 | x4 | x4 | x4 | x4 | x4 | x4 | x4 | x4 | %111
 x4 | x4 | x4 | x4 | x4 | x4 | x4 | x4 | x4 | x4 | x4 | x4 | x4 :| x4 | x4 | x4 | x4 | x4 | x4 | %130
 x4 | x4 | x4 | x4 | x4 | x4 | x4 | x4 | x4 | x4 | x4 | x4 | x4 | x4 | x4 | x4 | x4 | x4 | x4 | %149
 x4 | x4 | x4 | x4 | x4 | x4 | x4 | x4 | x4 | x4 | x4 | x4 | x4 | x4 | x4 | x4 | x4 | x4 | x4 | %168
 x4 | x4 | x4 | x4 | x4 | x4 | x4 | x4 | x4 | x4 | x4 | x4 | x4 | x4 | x4 | x4 | x4 | x4 | x4 | %187
 x4 | x4 | x4 | x4 | x4 | x4 | x4 | x4 | x4 | x4 | x4 | x4 | x4 | x4 | x4 | x4 | x4 | x4 | x4 | %206
 x4 | x4 | x4 | x4 | x4 | x4 | x4 | x4 | x4 | x4 | x4 | x4 | x4 | x4 | x4 | x4 | x4 | x4 | x4 | %225
 x4 | x4 | x4 | x4 | x4 | x4 | x4 | x4 | x4 | x4 | x4 | x4 | x4 | x4 | x4 | x4 | x4 | x4 | x4 | %244
 x4 | x4 | x4 | x4 | x4 | x4 | x4 | x A AA | x e ee | x4 | x4 | x A AA | x f ff | x4 | x4 | x4 | %260
 x4 | x4 | x4 | x4 | x4 | x18 | x4 | x4 | x4 | x4 | x4 | x4 | x4 | x4 | x4 | x4 | x4 | x4 | x4 | %279
 x4 | x4 | x4 | x4 | x4 | x4 | x4 | x4 | x4 | x4 | x4 | x4 | x4 | x4 | x4 | x4 | x4 | x4 | x4 | %298
 x4 | x4 | x4 | x4 | x4 | x4 | x4 | x4 | x4 | x4 | x4 | x4 | x4 | x4 | x4 | x4 | x4 | x4 | x4 | %317
 x4 | x4 | x4 | x4 | x4 | x4 | x4 | x4 | x4 | x4 | x4 | x4 | x4 | x4 | x4 | x4 | x4 | x4 | x4 | %336
 x4 | x4 | x4 | x4 | x4 | x4 | x4 | x4 | x4 | x4 | x4 | x4 | x4 | x4 | x4 | x4 | x4 | x4 | x4 | %355
 x4 | x4 | x4 | x4 | x4 | x4 | x4 | x4 | x4 | x4 | x4 | x4 | x4 | x4 | x4 | x4 | x4 | x4 | x4 | %374
 x4 | x4 | x4 | x4 | x4 | x4 | x4 | x4 | x4 | x4 | x4 | x4 | x4 | x4 | x4 | x4 | x4 | x4 | x4 | %393
 x4 | x4 | x4 | x4 | x4 | x4 | x4 | x4 | x4 | x4 | x4 | x4 | x4 | x4 | x4 | x4 | x4 | x4 | x4 | %412
 x4 | x4 | x4 | x4 | x4 | x4 | x4 | x4 | x4 | x4 | x4 | x4 | x4 | x4 | x4 | x4 | x4 | x4 | x4 | %431
 x4 | x4 | x4 | x4 | x4 | x4 | x4 | x4 | x4 | x4 | x4 | x4 | x4 | x4 | x4 | x4 | x4 | x4 | x4 | %450
 x4 | x4 | x4 | x4 | x4 | x4 | x4 | x4 | x4 | x4 | x4 | x4 | x4 | x4 | x4 | x4 | x4 | x4 | x4 | %469
 x4 | x4 | x4 | x4 | x4 | x4 | x4 | x4 | x4 | x4 | x4 | x4 | x4 | x4 | x4 | x4 | x4 | x4 | x4 | %488
 x4 | x4 | x4 | x4 |] %492
V:4
 x4 | x4 | x4 | x4 | x4 | x4 | x4 | x4 | x4 | x4 | x4 | x4 | x4 | x4 | z E EF | G4 | z E EF | x4 | %18
 x4 | x4 | x4 | x4 | x4 | x4 | x4 | x D DD | x A, A,A, | x4 | x4 | x D DD | x A, A,A, | x4 | x4 | %33
 x4 | x4 | x4 | x4 | x4 | x4 | x4 | x4 | x4 | x4 | x4 | x4 | x4 | x4 | x4 | x4 | x4 | x4 | x4 | %52
 x4 | x4 | x4 | x4 | x4 | x4 | x4 | x4 | x4 | x4 | [EG]4 | [FA]4 | [Ad]4 | [EG]4 | [EG]4 | [FA]4 | %68
 [Ad]4 | [EG]4 | [eg]4 | [fa]4 | [ad']4 | [eg]4 | [EG]4 | [=EG]4 | [=EG]4 | [CF]4 | [FA]4 | [GB]4 | %80
 [GB]4 | [FA]4 | x4 | c4- | c4 | B4- | B4 | =A4- | A4 | x4 | x4 | x4 | x4 | x4 | x4 | x4 | x4 | %97
 x4 | x4 | x4 | x4 | x4 | x4 | x4 | x4 | x4 | x4 | x4 | x4 | x4 | x4 | x4 | x4 | x4 | x4 | x4 | %116
 x4 | x4 | x4 | x4 | x4 | x4 | x4 | x4 :| x4 | x4 | x4 | x4 | x4 | x _d dd | x a aa | x4 | x4 | %133
 x _d dd | x b bb | x4 | x4 | AA AB | c2 z2 | AA AB | c2 z2 | x4 | x4 | x4 | x4 | x4 | x4 | x4 | %148
 x4 | x4 | x4 | x4 | x4 | x4 | x4 | x4 | x4 | x4 | x4 | x4 | x4 | x4 | x4 | x4 | x4 | x4 | x4 | %167
 x4 | x4 | x4 | x4 | x4 | x4 | x4 | x4 | x4 | x4 | x4 | x4 | x4 | x4 | x4 | x4 | x4 | x4 | x4 | %186
 x4 | x4 | x4 | x4 | x4 | x4 | x4 | x4 | x4 | x4 | x4 | x4 | x4 | x4 | x4 | x4 | x4 | x4 | x4 | %205
 x4 | x4 | x4 | x4 | x4 | [FA]4 | x4 | [^F=A]4 | x4 | [^F=A]4 | x4 | [^F=A]4 | x4 | [^F=A]4 | x4 | %220
 [^F=A]4 | x4 | [^F=A]4 | x4 | [^F=A]4 | x4 | x4 | x4 | x4 | x4 | x4 | x4 | x4 | x4 | x4 | x4 | %236
 x4 | x4 | x4 | x4 | x4 | x4 | x4 | x4 | x4 | x4 | x4 | x4 | x4 | x4 | x4 | x4 | x4 | x4 | x4 | %255
 x4 | x4 | x4 | x4 | z E EF | G4 | z E EF | x4 | x4 | x4 | [G=Bd]2 x16 | x4 | x D DD | x A, A,A, | %269
 x4 | x4 | x D DD | x A, A,A, | x4 | x4 | x4 | x4 | x4 | x4 | x4 | x4 | x4 | x4 | x4 | x4 | x4 | %286
 x4 | x4 | x4 | x4 | x4 | x4 | x4 | x4 | x4 | x4 | x4 | x4 | x4 | x4 | x4 | x4 | x4 | x4 | [C=E]4 | %305
 [DF]4 | [F=B]4 | [C=E]4 | [c=e]4 | [df]4 | [f=b]4 | [c=e]4 | [C=E]4 | [DF]4 | [F=B]4 | [C=E]4 | %316
 [c=e]4 | [df]4 | [f=b]4 | [c=e]4 | G4 | [=EG]4 | [=eg]4 | [cf]4 | [F=A]4 | [^F=A]4 | [^f=a]4 | %327
 [dg]4 | x4 | x4 | x4 | x4 | x4 | x4 | x4 | x4 | x4 | x4 | x4 | x4 | x4 | x4 | x4 | x4 | x4 | x4 | %346
 x4 | x4 | x4 | x4 | x4 | x4 | x4 | x4 | x4 | x4 | x4 | x4 | x4 | x4 | x4 | x4 | x4 | x4 | x4 | %365
 x4 | x4 | x4 | x4 | x4 | x4 | x4 | x4 | x4 | x4 | x4 | x4 | x4 | x4 | x4 | x4 | x4 | x4 | x4 | %384
 x4 | x4 | x4 | x4 | x4 | x4 | x4 | x4 | x4 | x4 | x4 | x4 | x4 | x4 | [=Bd]4- | [Bd]4 | x4 | x4 | %402
 x4 | x4 | x4 | x4 | x4 | x4 | x4 | x4 | x4 | x4 | x4 | x4 | x4 | x4 | x4 | x4 | x4 | x4 | x4 | %421
 x4 | x4 | x4 | x4 | x4 | x4 | x4 | x4 | x4 | x4 | x4 | x4 | x4 | x4 | x4 | x4 | x4 | x4 | x4 | %440
 x4 | x4 | x4 | x4 | x4 | x4 | x4 | x4 | x4 | x4 | x4 | x4 | x4 | x4 | x4 | x4 | x4 | x4 | x4 | %459
 x4 | x4 | x4 | x4 | x4 | x4 | x4 | x4 | x4 | x4 | x4 | x4 | x4 | x4 | E4 | x4 | x2 a2 | g x3 | %477
 E4 | x4 | x2 a2 | g x3 | x4 | x4 | x4 | x4 | x4 | x4 | x4 | x4 | x4 | x4 | x4 |] %492
V:5
 x4 | x4 | x4 | x4 | x4 | x4 | x4 | x4 | x4 | x4 | x4 | x4 | x4 | x4 | x4 | x4 | x4 | x4 | x4 | %19
 x4 | x4 | x4 | x4 | x4 | x4 | x4 | x4 | x4 | x4 | x4 | x4 | x4 | x4 | x4 | x4 | x4 | x4 | x4 | %38
 x4 | x4 | x4 | x4 | x4 | x4 | x4 | x4 | x4 | x4 | x4 | x4 | x4 | x4 | x4 | x4 | x4 | x4 | x4 | %57
 x4 | x4 | x4 | x4 | x4 | x4 | x4 | x4 | x4 | x4 | x4 | x4 | x4 | x4 | x4 | x4 | x4 | x4 | x4 | %76
 x4 | x4 | x4 | x4 | x4 | x4 | x4 | =A,,A,, A,,A,, | x4 | B,,B,, B,,B,, | x4 | _C,C, C,C, | x4 | %89
 C,C, C,C, | x4 | x4 | x4 | x4 | x4 | x4 | x4 | x4 | x4 | x4 | x4 | x4 | x4 | x4 | x4 | x4 | x4 | %107
 x4 | x4 | x4 | x4 | x4 | x4 | x4 | x4 | x4 | x4 | x4 | x4 | x4 | x4 | x4 | x4 | x4 :| x4 | x4 | %126
 x4 | x4 | x4 | x4 | x4 | x4 | x4 | x4 | x4 | x4 | x4 | x4 | x4 | x4 | x4 | x4 | x4 | x4 | x4 | %145
 x4 | G,,4 | C,2 z2 | x4 | x4 | x4 |[K:treble] x4 | x4 |[K:bass] x4 | x4 | x4 | x4 | x4 | x4 | x4 | %160
 x4 | x4 | x4 | x4 | x4 | x4 | x4 | x4 | x4 | x4 | x4 | x4 | x4 | x4 | x4 | x4 | x4 | x4 | x4 | %179
 x4 | x4 | x4 | x4 | x4 | x4 | x4 | x4 | x4 | x4 | x4 | x4 | x4 | x4 | x4 | x4 | x4 | x4 | x4 | %198
 x4 | x4 | x4 | x4 | x4 | x4 | x4 | x4 | x4 | x4 | x4 | x4 | x4 | x4 | x4 | x4 | x4 | x4 | x4 | %217
 x4 | x4 | x4 | x4 | x4 | x4 | x4 | x4 | x4 | x4 | x4 | x4 | x4 | x4 | x4 | x4 | x4 | x4 | x4 | %236
 x4 | x4 | x4 | x4 | x4 | x4 | x4 | x4 | x4 | x4 | x4 | x4 | x4 | x4 | x4 | x4 | x4 | x4 | x4 | %255
 x4 | x4 | x4 | x4 | x4 | x4 | x4 | x4 | x4 | x4 | x18 | x4 | x4 | x4 | x4 | x4 | x4 | x4 | x4 | %274
 x4 | x4 | x4 | x4 | x4 | x4 | x4 | x4 | x4 | x4 | x4 | x4 | x4 | x4 | x4 | x4 | x4 | x4 | x4 | %293
 x4 | x4 | x4 | x4 | x4 | x4 | x4 | x4 | x4 | x4 | x4 | x4 | x4 | x4 | x4 | x4 | x4 | x4 | x4 | %312
 x4 | x4 | x4 | x4 | x4 | x4 | x4 | x4 | x4 | x4 | x4 | x4 | x4 | x4 | x4 | x4 | x4 | x4 | x4 | %331
 x4 | x4 | x4 | x4 | x4 | x4 | x4 | x4 | x4 | x4 | x4 | x4 | x4 | x4 | x4 | x4 | x4 | x4 | x4 | %350
 x4 | x4 | x4 | x4 | x4 | x4 | x4 | x4 | x4 | x4 | x4 | x4 | x4 | x4 | x4 | x4 | x4 | x4 | x4 | %369
 x4 | x4 | x4 | x4 | x4 | x4 | x4 | x4 | x4 | x4 | x4 | x4 | x4 | x4 | x4 | x4 | x4 | x4 | x4 | %388
 x4 | x4 | x4 | x4 | x4 | x4 | x4 | x4 | x4 | x4 | x4 | x4 | x4 | x4 | x4 | x4 | x4 | x4 | x4 | %407
 x4 | x4 | x4 | x4 | x4 | x4 | x4 | x4 | x4 | x4 | x4 | x4 | x4 | x4 | x4 | x4 | x4 | x4 | x4 | %426
 x4 | x4 | x4 | x4 | x4 | x4 | x4 | x4 | x4 | x4 | x4 | x4 | x4 | x4 | x4 | x4 | x4 | x4 | x4 | %445
 x4 | x4 | x4 | x4 | x4 | x4 | x4 | x4 | x4 | x4 | x4 | x4 | x4 | x4 | x4 | x4 | x4 | x4 | x4 | %464
 x4 | x4 | x4 | x4 | x4 | x4 | x4 | x4 | x4 | x4 | x4 | x4 | x4 | x4 | x4 | x4 | x4 | x4 | x4 | %483
 x4 | x4 | x4 | x4 | x4 | x4 | x4 | x4 | x4 |] %492

